X: 1
T:Father John MacMillan of Barra
R:March
C:Trad., arr. Hamish Moore
S:Hamish Moore's School of Piping
Z:Transcribed by A. Upton
M:2/4
L:1/16
K:D
{g}A>B|:{gcd}c2{g}B<{d}A {gAGAG}A2{g}c<e|{g}f2e<d {g}e3f|{g}e2{g}c<{d}A {gAGAG}A2{d}f>e|{gcd}c2{g}B<{d}A {gBd}B2{g}A>B|!
{gcd}c2{g}B<{d}A {gAGAG}A2{g}c<e|{g}f2e/{g}c3{g}e3f|{g}e2{g}c<{d}A {gBd}B2{g}c>B|{g}A4 {gAGAG}A2:|!
{g}c<e|:{g}f2e<{A}e {g}e2{g}f<a|{gfg}f2e<{g}c {g}e3f|{g}e2{g}c<{d}A {gAGAG}A2{d}f>e|{gcd}c2{g}B<{d}A {gcd}B2{g}c<e|!
{g}f2e<{A}e {g}e2{g}f<a|{gfg}f2e<{g}c {g}e3f|{g}e2{g}c<{d}A {gAGAG}A2{d}f>e|{gcd}c2{g}B<{d}A {gBd}B2{g}A>B|!
{gcd}c2{g}B<{d}A {g}c<e{g}c<{d}A|{g}f2e<{g}c {g}e3f|{g}e2{g}c<{d}A {gBd}B2{g}c>B|{g}A4 {gAGAG}A2||!
{g}A>B|:{g}c<{d}A{g}c<e {gcd}c2{e}f>e|{gcd}c2{e}A>{d}c|{g}f2e<{g}c {g}e3f|a>f{g}e>f {gcd}c2{g}f>e|!
{gcd}c2{g}B<{d}A {gBd}B2{g}A>B|{g}c<{d}A{g}c<e {gcd}c2{e}A>{d}c|{g}f2e<{g}c {g}e3f|{g}e2{g}c<{d}A {gBd}B2{g}c>B|!
{g}A4 {gAGAG}A2:|{g}c<e|:{gfg}f2{g}e>f a>f{g}e>f|{gfg}f2{g}A<{d}c {g}e3f|{gfg}f2{g}e>f {g}e>fa>e|!
{gcg}c2{g}e>c {gBg}B2{g}c<e|{gfg}f2{g}e>f a>f{g}e>f|{gfg}f2{g}A<{d}c {g}e3f|{g}e2{g}c<{d}A {gBd}B2{g}c>B|!
{g}A4 {gAGAG}A2|{gfg}f2{g}e>f a>f{g}e>f|{gfg}f2A<{d}c {g}e3f|{gfg}f2{g}e>f {g}e>fa>e|{gcg}c2{g}e>c {gBg}B2{g}A>B|!
{gcd}c2{g}B<{d}A {g}c<e{g}c<{d}A|{g}f2e<{g}c {g}e3f|{g}e2{g}c<{d}A {gBd}B2{g}c>B|{g}A4 {gAGAG}A2||!
